svg/education/flask_3_fill.svg

<svg xmlns="http://www.w3.org/2000/svg" width="24" height="24" viewBox="0 0 24 24"><g fill="none" fill-rule="evenodd"><path d="M24,0 L24,24 L0,24 L0,0 L24,0 Z M12.5935,23.2578 L12.5819,23.2595 L12.5109,23.295 L12.4919,23.2987 L12.4767,23.295 L12.4057,23.2595 C12.3958,23.2564 12.387,23.259 12.3821,23.2649 L12.378,23.2758 L12.3609,23.7031 L12.3659,23.7235 L12.3769,23.7357 L12.4805,23.8097 L12.4953,23.8136 L12.5071,23.8097 L12.6107,23.7357 L12.6233,23.7197 L12.6267,23.7031 L12.6096,23.2758 C12.6076,23.2657 12.601,23.2593 12.5935,23.2578 Z M12.8584,23.1453 L12.8445,23.1473 L12.6598,23.2397 L12.6499,23.2499 L12.6472,23.2611 L12.6651,23.6906 L12.6699,23.7034 L12.6784,23.7105 L12.8793,23.8032 C12.8914,23.8069 12.9022,23.803 12.9078,23.7952 L12.9118,23.7812 L12.8777,23.1665 C12.8753,23.1546 12.8674,23.147 12.8584,23.1453 Z M12.143,23.1473 C12.1332,23.1424 12.1222,23.1453 12.1156,23.1526 L12.1099,23.1665 L12.0758,23.7812 C12.0751,23.7927 12.0828,23.8019 12.0926,23.8046 L12.1083,23.8032 L12.3092,23.7105 L12.3186,23.7024 L12.3225,23.6906 L12.3404,23.2611 L12.3372,23.2485 L12.3278,23.2397 L12.143,23.1473 Z"/><path fill="#09244B" d="M8,3 C8,2.44772 8.44772,2 9,2 L15,2 C15.5523,2 16,2.44772 16,3 C16,3.55228 15.5523,4 15,4 L15,8.63299 C15.0007,8.63547 15.003,8.64112 15.0092,8.65023 C15.0231,8.67053 15.051,8.69817 15.0937,8.71927 C17.4059,9.86007 19,12.243 19,15 C19,18.866 15.866,22 12,22 C8.13401,22 5,18.866 5,15 C5,12.243 6.59405,9.86007 8.90626,8.71927 C8.94903,8.69817 8.97694,8.67053 8.99079,8.65023 C8.997,8.64112 8.99927,8.63547 9,8.63299 L9,4 C8.44772,4 8,3.55228 8,3 Z M11,4 L11,8.63424 C11,9.50305 10.4509,10.1874 9.79118,10.5129 C8.42372,11.1875 7.41113,12.4669 7.1,14 L16.9,14 C16.5889,12.4669 15.5763,11.1875 14.2088,10.5129 C13.5491,10.1874 13,9.50305 13,8.63424 L13,4 L11,4 Z"/></g></svg>

<svg xmlns="http://www.w3.org/2000/svg" width="24" height="24"><g fill="none" fill-rule="evenodd"><path d="M24 0v24H0V0zM12.594 23.258l-.012.002-.071.035-.02.004-.014-.004-.071-.036c-.01-.003-.019 0-.024.006l-.004.01-.017.428.005.02.01.013.104.074.015.004.012-.004.104-.074.012-.016.004-.017-.017-.427c-.002-.01-.009-.017-.016-.018m.264-.113-.014.002-.184.093-.01.01-.003.011.018.43.005.012.008.008.201.092c.012.004.023 0 .029-.008l.004-.014-.034-.614c-.003-.012-.01-.02-.02-.022m-.715.002a.023.023 0 0 0-.027.006l-.006.014-.034.614c0 .012.007.02.017.024l.015-.002.201-.093.01-.008.003-.011.018-.43-.003-.012-.01-.01z"/><path fill="#09244B" d="M8 3a1 1 0 0 1 1-1h6a1 1 0 1 1 0 2v4.633c0 .002.003.008.01.017.013.02.041.048.084.07a7 7 0 1 1-6.187 0 .223.223 0 0 0 .084-.07A.067.067 0 0 0 9 8.633V4a1 1 0 0 1-1-1m3 1v4.634c0 .869-.55 1.553-1.209 1.879A5.008 5.008 0 0 0 7.1 14h9.8a5.008 5.008 0 0 0-2.691-3.487C13.549 10.187 13 9.503 13 8.634V4z"/></g></svg>
